svg/u1f4c5.svg

<svg viewBox="0 0 128 128" xmlns="http://www.w3.org/2000/svg">
  <g>
    <path d="M111.42,113.34H16.58 c-2.7,0-4.88-2.19-4.88-4.88V42.03c0-7.27,5.65-13.16,12.62-13.16h79.37c6.97,0,12.62,5.89,12.62,13.16v61.19v5.24 C116.31,111.16,114.12,113.34,111.42,113.34z" fill="#FAFAFA" stroke="#BDBDBD" stroke-width="3" stroke-miterlimit="10"/>
    <path d="M112.11,4h-4.8c-1,0-1.81,0.81-1.81,1.81l0,4.09c0,0.67,0.38,1.25,0.95,1.6 c2.01,1.2,3.24,3.57,2.71,6.17c-0.45,2.2-2.21,3.98-4.41,4.44c-3.73,0.79-7.03-2.05-7.03-5.65c0-2.12,1.14-3.97,2.85-4.97 c0.57-0.34,0.94-0.92,0.94-1.58V5.81c0-1-0.81-1.81-1.81-1.81H28.27c-0.98,0-1.77,0.79-1.77,1.77v4.16c0,0.65,0.37,1.22,0.93,1.55 c2.02,1.19,3.26,3.58,2.73,6.18c-0.45,2.2-2.21,3.98-4.41,4.44c-3.73,0.79-7.03-2.05-7.03-5.65c0-2.13,1.16-3.98,2.87-4.99 c0.55-0.32,0.91-0.9,0.91-1.54V5.77C22.5,4.79,21.71,4,20.73,4h-4.85c-3.17,0-5.75,2.57-5.75,5.75v37.52H117.7l0.16-37.49 C117.88,6.59,115.3,4,112.11,4z" fill="#F44336"/>
    <g>
      <path d="M45.09,15.46h4.12V29.3c0,1.27-0.28,2.4-0.84,3.37s-1.36,1.73-2.38,2.26 c-1.03,0.53-2.18,0.8-3.47,0.8c-2.11,0-3.76-0.54-4.94-1.61c-1.18-1.07-1.77-2.6-1.77-4.56h4.15c0,0.98,0.21,1.7,0.62,2.17 c0.41,0.47,1.06,0.7,1.95,0.7c0.79,0,1.41-0.27,1.88-0.81c0.47-0.54,0.7-1.31,0.7-2.31V15.46z" fill="#FFFFFF"/>
      <path d="M61.37,33.94c-0.98,1.19-2.33,1.78-4.06,1.78c-1.59,0-2.81-0.46-3.64-1.37 c-0.84-0.91-1.27-2.26-1.28-4.02V20.6h3.97v9.61c0,1.55,0.7,2.32,2.11,2.32c1.35,0,2.27-0.47,2.77-1.4V20.6h3.98v14.85h-3.73 L61.37,33.94z" fill="#FFFFFF"/>
      <path d="M72.39,35.45h-3.98V14.37h3.98V35.45z" fill="#FFFFFF"/>
      <path d="M81.2,29.83l2.75-9.24h4.26l-5.97,17.16l-0.33,0.78c-0.89,1.94-2.35,2.91-4.39,2.91 c-0.58,0-1.16-0.09-1.76-0.26v-3.01l0.6,0.01c0.75,0,1.31-0.11,1.68-0.34c0.37-0.23,0.66-0.61,0.87-1.14l0.47-1.22l-5.2-14.89 h4.27L81.2,29.83z" fill="#FFFFFF"/>
    </g>
    <g>
      <path d="M53.22,102.31h-8.57V69.26l-10.24,3.17v-6.97l17.89-6.41h0.92V102.31z"/>
      <path d="M93.59,63.9l-16.7,38.41h-9.05l16.73-36.28H63.09v-6.91h30.5V63.9z"/>
    </g>
  </g>
</svg>

<svg viewBox="0 0 128 128" xmlns="http://www.w3.org/2000/svg">
  <defs/>
  <path d="M111.42,113.34 L16.58,113.34 C13.88,113.34 11.7,111.15 11.7,108.46 L11.7,42.03 C11.7,34.76 17.35,28.87 24.32,28.87 L103.69,28.87 C110.66,28.87 116.31,34.76 116.31,42.03 L116.31,103.22 L116.31,108.46 C116.31,111.16 114.12,113.34 111.42,113.34 Z" fill="#FAFAFA"/>
  <path d="M111.42,114.84 L16.58,114.84 Q13.935,114.84 12.066,112.969 Q10.2,111.1 10.2,108.46 L10.2,42.03 Q10.2,35.975 14.314,31.685 Q18.452,27.37 24.32,27.37 L103.69,27.37 Q109.558,27.37 113.696,31.685 Q117.81,35.975 117.81,42.03 L117.81,108.46 Q117.81,111.107 115.937,112.975 Q114.066,114.84 111.42,114.84 Z M111.42,111.84 Q112.826,111.84 113.818,110.85 Q114.81,109.861 114.81,108.46 L114.81,42.03 Q114.81,37.181 111.531,33.762 Q108.278,30.37 103.69,30.37 L24.32,30.37 Q19.732,30.37 16.479,33.762 Q13.2,37.181 13.2,42.03 L13.2,108.46 Q13.2,111.84 16.58,111.84 Z" fill="#BDBDBD"/>
  <path d="M112.11,4 L107.31,4 C106.31,4 105.5,4.81 105.5,5.81 L105.5,9.9 C105.5,10.57 105.88,11.15 106.45,11.5 C108.46,12.7 109.69,15.07 109.16,17.67 C108.71,19.87 106.95,21.65 104.75,22.11 C101.02,22.9 97.72,20.06 97.72,16.46 C97.72,14.34 98.86,12.49 100.57,11.49 C101.14,11.15 101.51,10.57 101.51,9.91 L101.51,5.81 C101.51,4.81 100.7,4 99.7,4 L28.27,4 C27.29,4 26.5,4.79 26.5,5.77 L26.5,9.93 C26.5,10.58 26.87,11.15 27.43,11.48 C29.45,12.67 30.69,15.06 30.16,17.66 C29.71,19.86 27.95,21.64 25.75,22.1 C22.02,22.89 18.72,20.05 18.72,16.45 C18.72,14.32 19.88,12.47 21.59,11.46 C22.14,11.14 22.5,10.56 22.5,9.92 L22.5,5.77 C22.5,4.79 21.71,4 20.73,4 L15.88,4 C12.71,4 10.13,6.57 10.13,9.75 L10.13,47.27 L117.7,47.27 L117.86,9.78 C117.88,6.59 115.3,4 112.11,4 Z" fill="#F44336"/>
  <path d="M45.09,15.46 L49.21,15.46 L49.21,29.3 C49.21,30.57 48.93,31.7 48.37,32.67 C47.81,33.64 47.01,34.4 45.99,34.93 C44.96,35.46 43.81,35.73 42.52,35.73 C40.41,35.73 38.76,35.19 37.58,34.12 C36.4,33.05 35.81,31.52 35.81,29.56 L39.96,29.56 C39.96,30.54 40.17,31.26 40.58,31.73 C40.99,32.2 41.64,32.43 42.53,32.43 C43.32,32.43 43.94,32.16 44.41,31.62 C44.88,31.08 45.11,30.31 45.11,29.31 L45.11,15.46 Z" fill="#FFFFFF"/>
  <path d="M61.37,33.94 C60.39,35.13 59.04,35.72 57.31,35.72 C55.72,35.72 54.5,35.26 53.67,34.35 C52.83,33.44 52.4,32.09 52.39,30.33 L52.39,20.6 L56.36,20.6 L56.36,30.21 C56.36,31.76 57.06,32.53 58.47,32.53 C59.82,32.53 60.74,32.06 61.24,31.13 L61.24,20.6 L65.22,20.6 L65.22,35.45 L61.49,35.45 L61.37,33.94 Z" fill="#FFFFFF"/>
  <path d="M72.39,35.45 L68.41,35.45 L68.41,14.37 L72.39,14.37 L72.39,35.45 Z" fill="#FFFFFF"/>
  <path d="M81.2,29.83 L83.95,20.59 L88.21,20.59 L82.24,37.75 L81.91,38.53 C81.02,40.47 79.56,41.44 77.52,41.44 C76.94,41.44 76.36,41.35 75.76,41.18 L75.76,38.17 L76.36,38.18 C77.11,38.18 77.67,38.07 78.04,37.84 C78.41,37.61 78.7,37.23 78.91,36.7 L79.38,35.48 L74.18,20.59 L78.45,20.59 L81.2,29.83 Z" fill="#FFFFFF"/>
  <path d="M53.22,102.31 L44.65,102.31 L44.65,69.26 L34.41,72.43 L34.41,65.46 L52.3,59.05 L53.22,59.05 L53.22,102.31 Z"/>
  <path d="M93.59,63.9 L76.89,102.31 L67.84,102.31 L84.57,66.03 L63.09,66.03 L63.09,59.12 L93.59,59.12 L93.59,63.9 Z"/>
</svg>
